X: 1
T: Hejsan Grabbar
T: en Gammal Svensk Schottische
C: Trad.
O: arr. Carl J. Johnson
N: See also Sk\ojtel\oberdans (Skaters' Shottish)
M: 4/4
L: 1/8
K: G
D |\
"G"G>A BA G2 G>B | d>d g>B d2 d>g | "D7"f>e f>e c2 c>d | "G"e>d e>d B2 B>A |\
"G"G>A BA G2 G>B |
d>d g>B d2 d>g | "D7"f>e f>e c>A F>A | "G"G2 [B2G2] G2 z |]\
B |\
"C"c>d e>d c2 e2 | "G"G>B d>c B2 d2 |
"D7"D>D F>A c>A F>A | "G"G>A Bc d2 zB "I"|\
"C"c>d e>d c2 e2 | "G"G>B d>c B2 d2 | "D7"D>D F>A c>A F>A | "G"G2 [B2G2] G2 z |]
